ru/_assets/ymq-icon.svg

<svg xmlns="http://www.w3.org/2000/svg" width="15" height="16" fill="none" viewBox="0 0 15 16">
    <path fill="#000" d="M11 3V1c0-.6-.4-1-1-1H1C.4 0 0 .4 0 1v6c0 .6.4 1 1 1V5c0-1.1.9-2 2-2h8Z"/>
    <path fill="#000" d="M13 7V5c0-.6-.4-1-1-1H3c-.6 0-1 .4-1 1v6c0 .6.4 1 1 1V9c0-1.1.9-2 2-2h8Z"/>
    <path fill="#000" d="M5 8h9c.6 0 1 .4 1 1v6c0 .6-.4 1-1 1H5c-.6 0-1-.4-1-1V9c0-.5.4-1 1-1Z"/>
</svg>

<svg width="15" height="16" viewBox="0 0 15 16" fill="none" xmlns="http://www.w3.org/2000/svg">
<path d="M11 3V1C11 0.4 10.6 0 10 0H1C0.4 0 0 0.4 0 1V7C0 7.6 0.4 8 1 8V5C1 3.9 1.9 3 3 3H11Z" fill="black"/>
<path d="M13 7V5C13 4.4 12.6 4 12 4H3C2.4 4 2 4.4 2 5V11C2 11.6 2.4 12 3 12V9C3 7.9 3.9 7 5 7H13Z" fill="black"/>
<path d="M5 8H14C14.6 8 15 8.4 15 9V15C15 15.6 14.6 16 14 16H5C4.4 16 4 15.6 4 15V9C4 8.5 4.4 8 5 8Z" fill="black"/>
</svg>
